X:78
T:Granny Will Your Dog Bite
S:American Veteran Fifer #78
M:2/4
L:1/8
Q:1/8=180
K:D 
%%MIDI program 72
%%MIDI transpose 8
%%MIDI ratio 3 1
d>A FA | GBFA | d/c/d/A/ FA | Bc d>d |
d>A FA | GBFA | d/c/d/A/ FA | Bc d2 :|
|: d/c/d/e/ fa | gfec | d/c/d/e/ fa | gf ef/g/ |
a/b/a/f/ ge | fdef | d/c/d/A/ FA | Bc d2 :|


